picto/taxi-right.svg

<svg class="color-immutable" width="24" height="24" viewBox="0 0 24 24" fill="none" xmlns="http://www.w3.org/2000/svg"><path d="M0 22.5V1.5C0 0.675 0.675 0 1.5 0H22.5C23.325 0 24 0.675 24 1.5V22.5C24 23.325 23.325 24 22.5 24H1.5C0.675 24 0 23.325 0 22.5Z" fill="#2D327D"/><path d="M12 11.644H12.75V13.144H12V11.644Z" fill="white"/><path d="M5.58 13.736C5.791 13.525 6.077 13.407 6.376 13.407H12.86C13.158 13.407 13.444 13.525 13.655 13.736L16.269 16.35L20.656 16.714C20.851 16.73 21 16.892 21 17.087V19.425C21 19.632 20.832 19.8 20.625 19.8H20.213V19.369C20.213 18.127 19.205 17.119 17.963 17.119C16.721 17.119 15.713 18.127 15.713 19.369V19.8H8.25V19.369C8.25 18.127 7.242 17.119 6 17.119C4.758 17.119 3.75 18.127 3.75 19.369V19.8H3.375C3.168 19.8 3 19.632 3 19.425V16.782C3 16.484 3.119 16.197 3.33 15.986L5.58 13.736ZM10.085 14.494L10.087 16.032C10.087 16.239 10.255 16.406 10.462 16.406H14.721C14.845 16.406 14.946 16.305 14.946 16.181C14.946 16.121 14.922 16.064 14.88 16.022L13.087 14.228C13.017 14.158 12.921 14.118 12.822 14.118H10.46C10.253 14.119 10.085 14.287 10.085 14.494ZM4.513 16.406H8.998C9.205 16.406 9.373 16.238 9.373 16.031V14.494C9.373 14.287 9.205 14.119 8.998 14.119H6.413C6.314 14.119 6.218 14.159 6.148 14.229L4.355 16.023C4.313 16.065 4.289 16.122 4.289 16.182C4.288 16.305 4.389 16.406 4.513 16.406Z" fill="white"/><path fill-rule="evenodd" clip-rule="evenodd" d="M5.98499 20.336C6.50299 20.336 6.92199 19.916 6.92199 19.399C6.92199 18.881 6.50199 18.462 5.98499 18.462C5.46699 18.462 5.04799 18.882 5.04799 19.399C5.04799 19.916 5.46699 20.336 5.98499 20.336ZM6.00599 17.678C6.94799 17.678 7.71199 18.443 7.71199 19.384C7.71199 20.326 6.94699 21.09 6.00599 21.09C5.06399 21.09 4.29999 20.326 4.29999 19.384C4.29999 18.443 5.06399 17.678 6.00599 17.678Z" fill="white"/><path fill-rule="evenodd" clip-rule="evenodd" d="M17.962 20.336C18.479 20.336 18.899 19.916 18.899 19.399C18.899 18.881 18.479 18.462 17.962 18.462C17.444 18.462 17.024 18.882 17.024 19.399C17.025 19.916 17.445 20.336 17.962 20.336ZM17.962 17.692C18.904 17.692 19.668 18.457 19.668 19.398C19.668 20.34 18.904 21.104 17.962 21.104C17.02 21.104 16.256 20.34 16.256 19.398C16.256 18.457 17.021 17.692 17.962 17.692Z" fill="white"/><path d="M4.853 3V3.415H4.17V5.248H3.68V3.415H3V3H4.853Z" fill="white"/><path d="M6.33002 5.249H5.87502C5.85502 5.183 5.84502 5.12699 5.84502 5.08099C5.70602 5.22399 5.52602 5.295 5.30502 5.295C5.13302 5.295 4.99802 5.255 4.90202 5.175C4.79202 5.083 4.73602 4.95399 4.73602 4.789C4.73602 4.57899 4.83102 4.433 5.02102 4.352C5.09802 4.319 5.23902 4.289 5.44602 4.261C5.62302 4.237 5.73402 4.21499 5.77702 4.19299C5.82102 4.17099 5.84202 4.12599 5.84202 4.05999C5.84202 3.91299 5.74502 3.83999 5.55002 3.83999C5.44602 3.83999 5.37102 3.85799 5.32302 3.89499C5.27602 3.93199 5.24402 3.99599 5.22902 4.08699H4.80702C4.82102 3.90099 4.89102 3.75999 5.01802 3.66499C5.14502 3.56999 5.32602 3.52299 5.56102 3.52299C5.82002 3.52299 6.01202 3.57599 6.13602 3.68099C6.19402 3.73099 6.23202 3.78299 6.25102 3.83999C6.27002 3.89599 6.27902 3.98499 6.27902 4.10699C6.27902 4.13299 6.27702 4.245 6.27402 4.445C6.27302 4.648 6.27202 4.764 6.27202 4.793C6.27202 4.915 6.27602 5.00399 6.28302 5.06099C6.29002 5.11799 6.30502 5.181 6.33002 5.249ZM5.83902 4.438C5.78202 4.474 5.67702 4.50199 5.52602 4.52299C5.41902 4.53899 5.34202 4.55999 5.29502 4.58599C5.22802 4.62199 5.19502 4.683 5.19502 4.769C5.19502 4.839 5.21702 4.893 5.26102 4.932C5.30502 4.971 5.36702 4.98999 5.44602 4.98999C5.57702 4.98999 5.68302 4.944 5.76402 4.852C5.79302 4.82 5.81202 4.78699 5.82302 4.75299C5.83402 4.71899 5.83902 4.673 5.83902 4.617V4.438Z" fill="white"/><path d="M8.13298 3.569L7.59498 4.349L8.20098 5.249H7.68498L7.33898 4.704L7.00098 5.249H6.49298L7.08498 4.36L6.54498 3.569H7.05698L7.34998 4.02L7.63498 3.569H8.13298Z" fill="white"/><path d="M8.82198 3V3.401H8.37598V3H8.82198ZM8.82198 3.572V5.249H8.37598V3.572H8.82198Z" fill="white"/></svg>

<svg class="color-immutable" width="24" height="24" viewBox="0 0 24 24" fill="none" xmlns="http://www.w3.org/2000/svg"><g clip-path="url(#a)"><path d="M0 22.5v-21C0 .675.675 0 1.5 0h21c.825 0 1.5.675 1.5 1.5v21c0 .825-.675 1.5-1.5 1.5h-21C.675 24 0 23.325 0 22.5Z" fill="#2D327D"/><path d="M12 11.644h.75v1.5H12v-1.5ZM5.58 13.736c.211-.211.497-.329.796-.329h6.484c.298 0 .584.118.795.329l2.614 2.614 4.387.364a.374.374 0 0 1 .344.373v2.338a.375.375 0 0 1-.375.375h-.412v-.431a2.25 2.25 0 0 0-4.5 0v.431H8.25v-.431a2.25 2.25 0 0 0-4.5 0v.431h-.375A.375.375 0 0 1 3 19.425v-2.643c0-.298.119-.585.33-.796l2.25-2.25Zm4.505.758.002 1.538c0 .207.168.374.375.374h4.259a.225.225 0 0 0 .159-.384l-1.793-1.794a.376.376 0 0 0-.265-.11H10.46a.377.377 0 0 0-.375.376Zm-5.572 1.912h4.485a.375.375 0 0 0 .375-.375v-1.537a.375.375 0 0 0-.375-.375H6.413a.376.376 0 0 0-.265.11l-1.793 1.794a.225.225 0 0 0 .158.383Z" fill="#fff"/><path fill-rule="evenodd" clip-rule="evenodd" d="M5.985 20.336a.937.937 0 1 0 0-1.874.937.937 0 0 0 0 1.874Zm.021-2.658a1.707 1.707 0 1 1-.002 3.414 1.707 1.707 0 0 1 .002-3.414ZM17.962 20.336a.938.938 0 1 0-.001-1.875.938.938 0 0 0 .001 1.875Zm0-2.644a1.707 1.707 0 1 1-.002 3.414 1.707 1.707 0 0 1 .002-3.414Z" fill="#fff"/><path d="M4.853 3v.415H4.17v1.833h-.49V3.415H3V3h1.853ZM6.33 5.249h-.455a.597.597 0 0 1-.03-.168.72.72 0 0 1-.54.214c-.172 0-.307-.04-.403-.12a.477.477 0 0 1-.166-.386c0-.21.095-.356.285-.437.077-.033.218-.063.425-.091.177-.024.288-.046.331-.068.044-.022.065-.067.065-.133 0-.147-.097-.22-.292-.22-.104 0-.179.018-.227.055-.047.037-.079.101-.094.192h-.422a.549.549 0 0 1 .211-.422c.127-.095.308-.142.543-.142.259 0 .451.053.575.158.058.05.096.102.115.159a.908.908 0 0 1 .028.267l-.005.338-.002.348c0 .122.004.211.011.268.007.057.022.12.047.188Zm-.491-.811a.868.868 0 0 1-.313.085.734.734 0 0 0-.231.063c-.067.036-.1.097-.1.183 0 .07.022.124.066.163a.27.27 0 0 0 .185.058.403.403 0 0 0 .318-.138.271.271 0 0 0 .059-.099.46.46 0 0 0 .016-.136v-.179ZM8.133 3.569l-.538.78.606.9h-.516l-.346-.545-.338.545h-.508l.592-.889-.54-.791h.512l.293.451.285-.451h.498ZM8.822 3v.401h-.446V3h.446Zm0 .572v1.677h-.446V3.572h.446Z" fill="#fff"/></g><defs><clipPath id="a"><path fill="#fff" d="M0 0h24v24H0z"/></clipPath></defs></svg>
